X:1
T:Charming Molly
M:3/4
L:1/8
K:F
F-GA-F| GEF-G| AF GE|
M:2/4
 FG AB|G-F E2|
M:3/4
 F2- A2 B2| G2 G2|c-A|
M:2/4
B-A G2|
M:3/4
 F6| A2- c2 B2| G4 c2|
M:2/4
d-c =B2| c6| cA BG| AF FF| GF EC| F2- A2| B2 G2| G2c-A|B-A G2|
M:3/4
 F6|
